X: 26966
T: Miss Ciara McGoldrick's
R: jig
M: 6/8
K: Gmajor
B2A GED|ded dBA|B2A GED|ABA AGA|
B2 A GED|ded dBd|e/f/gf edB|GAB AGA:|
B2c deg|age ~g3|B2c deg|age dBA|
B2c deg|age g2f|e/f/gf edB|GAB AGA:|

